icon_installer/data/icons/scalable/actions/show-checkerboard-symbolic.svg

<?xml version="1.0" encoding="UTF-8"?>
<svg height="16px" viewBox="0 0 16 16" width="16px" xmlns="http://www.w3.org/2000/svg">
    <path d="m 5 2 v 3 h 3 v -3 z m 3 3 v 3 h 3 v -3 z m 3 0 h 3 v -3 h -3 z m 0 3 v 3 h 3 v -3 z m 0 3 h -3 v 3 h 3 z m -3 0 v -3 h -3 v 3 z m -3 0 h -3 v 3 h 3 z m 0 -3 v -3 h -3 v 3 z m 0 0" fill="#222222"/>
</svg>

<svg xmlns="http://www.w3.org/2000/svg" width="16" height="16"><path fill="#222" d="M5 2v3h3V2zm3 3v3h3V5zm3 0h3V2h-3zm0 3v3h3V8zm0 3H8v3h3zm-3 0V8H5v3zm-3 0H2v3h3zm0-3V5H2v3zm0 0"/></svg>
